X:1
T: Finnin' Haddies
C:Carl Volti
R:Strathspey
Q: 128
K:Em
M:4/4
L:1/16
|:B2|ee3 B3A G3F E3G|Fd3 A3G FD3 D2B2|ee3 B3A G3F E3G|((3F2G2A2) ((3B2A2B2) GE3 E2B2|
ee3 B3A G3F E3G|Fd3 A3G FD3 D2B2|ee3 B3A G3F E3G|((3F2G2A2) ((3B2A2B2) GE3 E2F2|
GG3 A3G d3G B3G|Fd3 A3G FD3 D3F|GG3 B3A d3G B3e|((3g2f2e2) ((3B2e2^d2) eE3 E2F2|
GG3 A3G d3G B3G|Fd3 A3G FD3 D3F|GG3 B3A d3G B3e|((3g2f2e2) ((3B2e2^d2) eE3 E2:|
